X: 1
T: Waukin' o' the Fauld
S: A. Fraser VOM 86, arr. B.McOwen 4/88
R: strathspey
M: C
L: 1/8
K: Ador
G \
| "Am"E<A A>B A2 (g>e) | "G7"d>B A<G "C"E2 "D7"(D>E) \
| "G"G>A B>A G<E D>E | "G"G>A B>A G>E "Em7"D>G |\
| "Am"[EA,]<A A>B "Dm"A2 (G>A) |
| "Em7"B>A B<d "Am"{d}e2 "D7"g>(a \
| "G"(3b)ag "D7"(3age "G"d(e/f/ g)>B | "Em"A>G "Em"E<G "Am"{G}A3 |[|\
B \
| "Am"A<a a>b "(D)"a2 (g>a) | "G7"b2 (a>g) "C"e2 "D7"(d>e) |
| "G"g>a g<b G>A B<G | "G"g/f/g/a/ (gb) GA "Em"B<G ||\
| "Am"A<a a>b "D(m)"a2 (g>f) | "Em7"e>d e<g "Am"a2 "D7"g>(a \
| "G"(3b)ag "D7"(3age "G"d(e/f/ g)>B | "Am"A>G "Em7"E<G "Am"{G}A3 |]
